src/svg/download-outline.svg

<svg version="1.2" baseProfile="tiny" xmlns="http://www.w3.org/2000/svg" width="24" height="24" viewBox="0 0 24 24"><path d="M20.986 17c0-.105-.004-.211-.038-.316l-2-6c-.136-.409-.516-.684-.948-.684h-.561l.682-.678c1.17-1.17 1.17-3.072 0-4.242-.81-.812-2.068-1.078-3.121-.709v-1.371c0-1.654-1.346-3-3-3s-3 1.346-3 3v1.371c-1.052-.369-2.311-.103-3.121.709-1.17 1.17-1.17 3.072.002 4.244l.68.676h-.561c-.432 0-.812.275-.948.684l-2 6c-.034.105-.038.211-.038.316-.014 0-.014 5-.014 5 0 .553.447 1 1 1h16c.553 0 1-.447 1-1 0 0 0-5-.014-5zm-13.693-10.506c.189-.187.439-.293.707-.293s.518.104.707.293l2.293 2.293v-5.787c0-.552.448-1 1-1s1 .448 1 1v5.787l2.293-2.293c.379-.377 1.035-.377 1.414 0 .391.39.391 1.023.002 1.412l-4.709 4.684-4.707-4.682c-.391-.388-.391-1.024 0-1.414zm-.572 5.506h1.852l3.429 3.41 3.428-3.41h1.852l1.667 5h-13.894l1.666-5zm12.279 9h-14v-3h14v3z"/></svg>

<?xml version="1.0" encoding="iso-8859-1"?>
<!-- Generator: Adobe Illustrator 16.2.1, SVG Export Plug-In . SVG Version: 6.00 Build 0)  -->
<svg version="1.2" baseProfile="tiny" id="Layer_1" xmlns="http://www.w3.org/2000/svg" xmlns:xlink="http://www.w3.org/1999/xlink"
	 x="0px" y="0px" width="24px" height="24px" viewBox="0 0 24 24" xml:space="preserve">
<path d="M20.986,17c0-0.105-0.004-0.211-0.038-0.316l-2-6C18.812,10.275,18.432,10,18,10h-0.561l0.682-0.678
	c1.17-1.17,1.17-3.072,0-4.242C17.311,4.268,16.053,4.002,15,4.371V3c0-1.654-1.346-3-3-3S9,1.346,9,3v1.371
	C7.948,4.002,6.689,4.268,5.879,5.08c-1.17,1.17-1.17,3.072,0.002,4.244L6.561,10H6c-0.432,0-0.812,0.275-0.948,0.684l-2,6
	C3.018,16.789,3.014,16.895,3.014,17C3,17,3,22,3,22c0,0.553,0.447,1,1,1h16c0.553,0,1-0.447,1-1C21,22,21,17,20.986,17z
	 M7.293,6.494C7.482,6.307,7.732,6.201,8,6.201s0.518,0.104,0.707,0.293L11,8.787V3c0-0.552,0.448-1,1-1s1,0.448,1,1v5.787
	l2.293-2.293c0.379-0.377,1.035-0.377,1.414,0c0.391,0.39,0.391,1.023,0.002,1.412L12,12.59L7.293,7.908
	C6.902,7.52,6.902,6.884,7.293,6.494z M6.721,12h1.852l3.429,3.41L15.43,12h1.852l1.667,5H5.055L6.721,12z M19,21H5v-3h14V21z"/>
</svg>
